!!!COM: Corelli, Arcangelo
!!!OTL: 
!!!ONM: Opus 6, No. 7
!!!OMV: 5
!!!CDT: 1653/2/17/-1713/1/8/
!!!OCY: Italia
**kern	**kern	**kern	**kern	**kern	**kern	**kern
*clefC	*clefG	*clefG	*clefG	*clefC	*clefG	*clefG
*k[f#c#]	*k[f#c#]	*k[f#c#]	*k[f#c#]	*k[f#c#]	*k[f#c#]	*k[f#c#]
*D:	*D:	*D:	*D:	*D:	*D:	*D:
*M4/4	*M4/4	*M4/4	*M4/4	*M4/4	*M4/4	*M4/4
=1	=1	=1	=1	=1	=1	=1
1r	1r	1r	1r	1r	1r	2dd
.	.	.	.	.	.	2ee
=2	=2	=2	=2	=2	=2	=2
1r	1r	1r	1r	1r	1r	8ff#
.	.	.	.	.	.	8bb
.	.	.	.	.	.	8aa
.	.	.	.	.	.	8bb
.	.	.	.	.	.	8ee
.	.	.	.	.	.	8aa
.	.	.	.	.	.	8gg
.	.	.	.	.	.	8aa
=3	=3	=3	=3	=3	=3	=3
1r	1r	1r	1r	1r	2dd	4dd
.	.	.	.	.	.	2ddd
.	.	.	.	.	2ee	.
.	.	.	.	.	.	4ccc#
=4	=4	=4	=4	=4	=4	=4
1r	1r	1r	1r	1r	8ff#	2ddd
.	.	.	.	.	8bb	.
.	.	.	.	.	8aa	.
.	.	.	.	.	8bb	.
.	.	.	.	.	8ee	2ccc#
.	.	.	.	.	8aa	.
.	.	.	.	.	8gg	.
.	.	.	.	.	8aa	.
=5	=5	=5	=5	=5	=5	=5
1r	1r	1r	1r	1r	4dd	2bb
.	.	.	.	.	2gg	.
.	.	.	.	.	.	4aa
.	.	.	.	.	4ff#	[4ddd
=6	=6	=6	=6	=6	=6	=6
1r	2a	1r	1r	2A	4ee	4ddd]
.	.	.	.	.	2aa	4ccc#
.	2b	.	.	2B	.	2ddd
.	.	.	.	.	4gg#	.
=7	=7	=7	=7	=7	=7	=7
1r	8cc#	1r	1r	8c#	4aa	4ccc#
.	8f#	.	.	8f#	.	.
.	8e	.	.	8e	8r	2aa
.	8f#	.	.	8f#	8a	.
.	8B	.	.	8B	4.dd	.
.	8e	.	.	8e	.	.
.	8d	.	.	8d	.	4gg#
.	8e	.	.	8e	16cc#	.
.	.	.	.	.	16b	.
=8	=8	=8	=8	=8	=8	=8
1r	4A	1r	1r	4A	8cc#	4aa
.	.	.	.	.	8a	.
.	8r	.	.	8r	2aa	4cc#
.	8a	.	.	8A	.	.
.	4b	.	.	4B	.	4dd
.	4cc#	.	.	4c#	[4gg	4ee
=9	=9	=9	=9	=9	=9	=9
2D	8dd	4r	2a	2D	4gg]	2a
.	8d	.	.	.	.	.
.	8f#	2ff#	.	.	2ff#	.
.	8d	.	.	.	.	.
2E	4B	.	2g	2E	.	2g
.	4c#	[4ee	.	.	[4ee	.
=10	=10	=10	=10	=10	=10	=10
8F#	4.A	8ee]	4.f#	8F#	8ee]	4.f#
8B	.	8a	.	8B	8a	.
8A	.	2dd	.	8A	2dd	.
8B	8f#	.	8dd	8B	.	8dd
8E	4b	.	4.gg	8E	.	4.gg
8A	.	.	.	8A	.	.
8G	4a	4cc#	.	8G	4cc#	.
8A	.	.	16ff#	8A	.	16ff#
.	.	.	16ee	.	.	16ee
=11	=11	=11	=11	=11	=11	=11
4.D	4a	8dd	4.ff#	4.D	8dd	4.ff#
.	.	8ff#	.	.	8ff#	.
.	8r	4.bb	.	.	4.bb	.
8d	8d	.	8ff#	8d	.	8ff#
8c#	8e	.	4.ee	8c#	.	4.ee
8B	8d	8ee	.	8B	8ee	.
8c#	8e	[4aa	.	8c#	[4aa	.
8A	8c#	.	8a	8A	.	8a
=12	=12	=12	=12	=12	=12	=12
8B	8d	4aa]	2dd	8B	4aa]	2dd
8A	8c#	.	.	8A	.	.
8B	8d	4gg#	.	8B	4gg#	.
8E	8B	.	.	8E	.	.
8A	4c#	8aa	4.cc#	8A	8aa	4.cc#
8AA	.	8cc#	.	8AA	8cc#	.
8r	8r	[4ff#	.	8r	[4ff#	.
8A	8a	.	8f#	8A	.	8f#
=13	=13	=13	=13	=13	=13	=13
8G	8b	8ff#]	4.b	8G	8ff#]	4.b
8F#	8a	8b	.	8F#	8b	.
8G	8b	4.ee	.	8G	4.ee	.
8E	8g	.	8e	8E	.	8e
8F#	8a	.	4.a	8F#	.	4.a
8E	8g	8a	.	8E	8a	.
8F#	8a	[4dd	.	8F#	[4dd	.
8D	8f#	.	8d	8D	.	8d
=14	=14	=14	=14	=14	=14	=14
4E	4b	4dd]	2g	4E	4dd]	2g
4AA	4a	4cc#	.	4AA	4cc#	.
4D	4a	4dd	4f#	4D	4dd	4f#
[4d	8r	4aa	4ff#	[4d	4aa	4ff#
.	8f#	.	.	.	.	.
=15	=15	=15	=15	=15	=15	=15
4d]	4.e	4bb	4gg#	4d]	4bb	4gg#
4c#	.	4ccc#	2aa	4c#	4ccc#	2aa
.	8e	.	.	.	.	.
4B	8f#	2ddd	.	4B	2ddd	.
.	8d	.	.	.	.	.
4E	4e	.	4gg#	4E	.	4gg#
=16	=16	=16	=16	=16	=16	=16
4A	4e	4ccc#	2a	4A	4ccc#	2a
4C#	2a	2.r	.	4C#	2.r	.
4D	.	.	2b	4D	.	2b
4E	4g#	.	.	4E	.	.
=17	=17	=17	=17	=17	=17	=17
4AA	4a	2a	8cc#	4AA	2a	8cc#
.	.	.	8ff#	.	.	8ff#
2.r	2.r	.	8ee	2.r	.	8ee
.	.	.	8ff#	.	.	8ff#
.	.	2b	8b	.	2b	8b
.	.	.	8ee	.	.	8ee
.	.	.	8dd	.	.	8dd
.	.	.	8ee	.	.	8ee
=18	=18	=18	=18	=18	=18	=18
1r	1r	8cc#	4a	1r	8cc#	4a
.	.	8ff#	.	.	8ff#	.
.	.	8ee	2aa	.	8ee	2aa
.	.	8ff#	.	.	8ff#	.
.	.	8b	.	.	8b	.
.	.	8ee	.	.	8ee	.
.	.	8dd	[4gg	.	8dd	[4gg
.	.	8ee	.	.	8ee	.
=19	=19	=19	=19	=19	=19	=19
2D	8dd	4a	4gg]	2D	4a	4gg]
.	8d	.	.	.	.	.
.	8f#	4aa	2ff#	.	4aa	2ff#
.	8d	.	.	.	.	.
2E	4B	2gg	.	2E	2gg	.
.	4e	.	[4ee	.	.	[4ee
=20	=20	=20	=20	=20	=20	=20
8F#	4.A	2ff#	8ee]	8F#	2ff#	8ee]
8E	.	.	8a	8E	.	8a
8F#	.	.	2dd	8F#	.	2dd
8D	8a	.	.	8D	.	.
8G#	4b	2ee	.	8G#	2ee	.
8G#	.	.	.	8G#	.	.
8A#	4cc#	.	[4cc#	8A#	.	[4cc#
8F#	.	.	.	8F#	.	.
=21	=21	=21	=21	=21	=21	=21
8B	4.f#	2dd	8cc#]	8B	2dd	8cc#]
8c#	.	.	8f#	8c#	.	8f#
8d	.	.	2b	8d	.	2b
8D	8f#	.	.	8D	.	.
8E	8g	2cc#	.	8E	2cc#	.
8C#	8e	.	.	8C#	.	.
8F#	4f#	.	4a#	8F#	.	4a#
8FF#	.	.	.	8FF#	.	.
=22	=22	=22	=22	=22	=22	=22
4BB	2f#	2b	4b	4BB	2b	4b
2B	.	.	4dd	2B	.	4dd
.	2r	4r	4cc#	.	4r	4cc#
4A	.	4ff#	4f#	4A	4ff#	4f#
=23	=23	=23	=23	=23	=23	=23
4G	4r	4b	4r	4G	4b	4r
4E	4e	4.ee	4gg	4E	4.ee	4gg
4F#	4c#	.	4a#	4F#	.	4a#
.	.	8ff#	.	.	8ff#	.
4BB	8d	8dd	[4b	4BB	8dd	[4b
.	8e	8cc#	.	.	8cc#	.
=24	=24	=24	=24	=24	=24	=24
4F#	2f#	4dd	4b]	4F#	4dd	4b]
4FF#	.	4cc#	4a#	4FF#	4cc#	4a#
4BB	4f#	4b	4b	4BB	4b	8r
.	.	.	.	.	.	8bb
4r	4r	4r	4r	4r	4r	8aa
.	.	.	.	.	.	8bb
=25	=25	=25	=25	=25	=25	=25
1r	1r	1r	1r	1r	2r	8ee
.	.	.	.	.	.	8aa
.	.	.	.	.	.	8gg
.	.	.	.	.	.	8aa
.	.	.	.	.	8r	8dd
.	.	.	.	.	8bb	8gg
.	.	.	.	.	8aa	8ff#
.	.	.	.	.	8bb	8gg
=26	=26	=26	=26	=26	=26	=26
1r	1r	1r	1r	1r	8ee	8cc#
.	.	.	.	.	8aa	8ff#
.	.	.	.	.	8gg	8ee
.	.	.	.	.	8aa	8ff#
.	.	.	.	.	8dd	8b
.	.	.	.	.	8gg	8ee
.	.	.	.	.	8ff#	8dd
.	.	.	.	.	8gg	8ee
=27	=27	=27	=27	=27	=27	=27
1r	4.a	1r	1r	4.A	8cc#	4a
.	.	.	.	.	8a	.
.	.	.	.	.	2aa	4r
.	8f#	.	.	8F#	.	.
.	8g	.	.	8G	.	2bb
.	8a	.	.	8A	.	.
.	8b	.	.	8B	[4gg	.
.	8cc#	.	.	8c#	.	.
=28	=28	=28	=28	=28	=28	=28
4D	4dd	4r	4r	8d	4gg]	4aa
.	.	.	.	8D	.	.
4r	4d	4ff#	4dd	8F#	4ff#	2dd
.	.	.	.	8D	.	.
4A	4r	4r	4r	8A	4ee	.
.	.	.	.	8B	.	.
4r	4a	4aa	4cc#	8c#	[4aa	4cc#
.	.	.	.	8A	.	.
=29	=29	=29	=29	=29	=29	=29
4E	4r	4r	4r	8e	4aa]	4b
.	.	.	.	8E	.	.
4r	4e	4gg	4ee	8G	4gg	2ee
.	.	.	.	8E	.	.
4B	4r	4r	4r	8B	4ff#	.
.	.	.	.	8c#	.	.
4r	4b	4bb	4dd	8d	[4bb	4dd
.	.	.	.	8B	.	.
=30	=30	=30	=30	=30	=30	=30
4F#	4r	4r	4r	8f#	4bb]	4cc#
.	.	.	.	8F#	.	.
4r	4f#	4aa	4cc#	8A	2aa	4ff#
.	.	.	.	8F#	.	.
4G	4r	4r	4r	8G	.	8b
.	.	.	.	8A	.	8cc#
4r	4g	[4gg	4b	8B	[4gg	8dd
.	.	.	.	8c#	.	8ee
=31	=31	=31	=31	=31	=31	=31
2D	8r	4gg]	4a	2D	4gg]	4a
.	8d	.	.	.	.	.
.	8f#	2ff#	4aa	.	2ff#	4aa
.	8d	.	.	.	.	.
2E	4B	.	2gg	2E	.	2gg
.	4e	[4ee	.	.	[4ee	.
=32	=32	=32	=32	=32	=32	=32
8F#	4A	8ee]	2ff#	8F#	8ee]	2ff#
8E	.	8a	.	8E	8a	.
8F#	4r	2dd	.	8F#	2dd	.
8G#	.	.	.	8G#	.	.
8A	4.a	.	2ee	8A	.	2ee
8B	.	.	.	8B	.	.
8c#	.	[4cc#	.	8c#	[4cc#	.
8A#	8cc#	.	.	8A#	.	.
=33	=33	=33	=33	=33	=33	=33
8B	4f#	8cc#]	2dd	8B	8cc#]	2dd
8BB	.	8f#	.	8BB	8f#	.
8D	4r	2b	.	8D	2b	.
8BB	.	.	.	8BB	.	.
8F#	4.f#	.	2cc#	8F#	.	2cc#
8G	.	.	.	8G	.	.
8A	.	[4a	.	8A	[4a	.
8F#	8a	.	.	8F#	.	.
=34	=34	=34	=34	=34	=34	=34
8G	4d	8a]	2b	8G	8a]	2b
8A	.	8d	.	8A	8d	.
8B	4r	2g	.	8B	2g	.
8c#	.	.	.	8c#	.	.
8d	4.d	.	2a	8d	.	2a
8D	.	.	.	8D	.	.
8F#	.	[4f#	.	8F#	[4f#	.
8D	8f#	.	.	8D	.	.
=35	=35	=35	=35	=35	=35	=35
4GG	8g	4f#]	8B	4GG	4f#]	8B
.	8a	.	8c#	.	.	8c#
4GG#	8b	4f	2d	4GG#	4f	2d
.	16cc#	.	.	.	.	.
.	16dd	.	.	.	.	.
2AA	4a	4.e	.	2AA	4.e	.
.	4A	.	4c#	.	.	4c#
.	.	8a	.	.	8a	.
=36	=36	=36	=36	=36	=36	=36
1DD	1A	1f#	1d	1DD	1f#	1d
==	==	==	==	==	==	==
*-	*-	*-	*-	*-	*-	*-
!!!RWG: This file only contains pitch and duration data.
!!!RWG: Transposing instruments are not transposed.
!!!RWG: Durations of rests and tied notes may be interpreted.
!!!RWG: Key is interpreted using the Humdrum key tool.
!!!SCA: 
!!!YOR: Chrysander Edition
!!!AGN: concerto grosso
!!!AFT: stage1
!!!ENC: F. Bennion
!!!END: 1997/04/15
!!!AST: baroque
!!!YEC: Copyright 1994, Center for Computer Assisted Research in the Humanities
!!!YEM: Rights to all derivative electronic formats reserved.
!!!YEM: Refer to licensing agreement for further details.
!!!YEN: United States of America
!!!EED: W.B. Hewlett
!!!KEY: 355351517
!!!EMD: Converted from MuseData to Humdrum Aug 9, 1999, by Bret Aarden using muse2kern.
!!!VTS: 2747288058
